X: 1
T:Philadelphia Hornpipe
R:hornpipe
C:Tony Upton, 7/14/98
M:4/4
L:1/8
Q:1/4=180
K:Gm
B2GB BGB,G|dGBG BG,DG|F2DF F2DF|DFAF dFAF|!
B2GB BGB,G|dGBG BG,DG|c2BA GEDG|FAAA B2G2:|!
G2DG G2DG|GDdG BGDG|F2B,F F2B,F|FB,BF FDB,D|!
G2DG G2DG|GDdG BGDG|c2BA dceB|cAAA B2G2:|!
